X: 10393
M: 3/8
L: 1/16
K: G
(3(DEF) |\
d4BG | e4cA | F2G2A2 | G4 ::\
(Bd) |\
(dc)c2 (FA) | (AG)G2 (Bd) | (dc)c2 (FA) |\
(dc)c2 (fa) | (ag)g2 (Bd) | (dB)(ec)(FA) | G4 ::\


